src/assets/icons/fire-emblem.svg

<?xml version="1.0" encoding="UTF-8"?>
<svg width="32px" height="32px" viewBox="0 0 32 32" version="1.1" xmlns="http://www.w3.org/2000/svg" xmlns:xlink="http://www.w3.org/1999/xlink">
    <!-- Generator: Sketch 61.2 (89653) - https://sketch.com -->
    <title>Atoms/Ikoner/Tjenester/Fire-emblem</title>
    <desc>Created with Sketch.</desc>
    <g id="Atoms/Ikoner/Tjenester/Fire-emblem" stroke="none" stroke-width="1" fill="none" fill-rule="evenodd">
        <g id="Brannvern,-ildsted-og-feiing">
            <path d="M3,1.085 L3,11.66 C3,19.316 7.682,26.418 15.524,30.657 L16,30.915 L16.476,30.658 C24.318,26.418 29,19.317 29,11.661 L29,1.085 L3,1.085 Z M16,28.635 C13.865,27.426 12,25.985 10.439,24.373 C10.434,24.366 10.434,24.357 10.428,24.351 C8.472,21.998 8.493,20.371 8.869,18.372 C9.327,15.937 11.156,14.687 12.905,13.427 C14.282,12.434 15.584,11.497 16.064,10.082 C16.245,9.548 16.338,9.02 16.369,8.511 C16.781,9.323 17.042,10.236 16.962,11.191 C16.801,13.109 15.902,14.298 15.11,15.347 C14.628,15.985 14.172,16.587 13.923,17.287 C13.419,18.721 13.638,20.124 14.524,21.138 C15.445,22.191 16.978,22.675 18.427,22.373 C19.99,22.048 21.193,20.901 21.726,19.228 C21.972,18.457 22.05,17.732 22.032,17.082 C22.638,17.901 22.97,18.799 23.018,19.764 C23.029,19.952 23.021,20.132 23.02,20.304 C23.001,22.966 21.925,23.976 21.925,23.976 C20.293,25.748 18.307,27.328 16,28.635 Z M27,11.661 C27,14.431 26.3,17.122 25.011,19.608 C24.901,17.75 24.033,16.032 22.494,14.635 L22.209,14.375 L19.272,14.375 L19.759,15.716 C20.108,16.677 20.128,17.655 19.82,18.622 C19.508,19.602 18.869,20.239 18.02,20.416 C17.27,20.57 16.476,20.331 16.03,19.821 C15.62,19.353 15.545,18.707 15.809,17.955 C15.954,17.548 16.302,17.087 16.705,16.553 C17.565,15.414 18.744,13.854 18.954,11.359 C19.175,8.738 17.674,6.509 16.376,5.1 L16.08,4.778 L13.499,4.778 L13.999,6.126 C14.308,6.958 14.587,8.208 14.17,9.44 C13.896,10.248 12.895,10.969 11.735,11.804 C9.867,13.15 7.601,14.719 6.908,17.978 C6.823,18.377 6.808,18.816 6.815,19.27 C5.637,16.879 5,14.305 5,11.661 L5,3.085 L27,3.085 L27,11.661 Z" id="Shape" fill="#2A2859"></path>
        </g>
    </g>
</svg>

<svg xmlns="http://www.w3.org/2000/svg" width="32" height="32" viewBox="0 0 32 32"><defs><style>.cls-1{fill-rule:evenodd;}</style></defs><g id="fire-emblem"><path id="Shape" class="cls-1" d="M3,1.08V11.66c0,7.66,4.68,14.76,12.52,19l.48.25.48-.25C24.32,26.42,29,19.32,29,11.66V1.08ZM16,28.63a24.23,24.23,0,0,1-5.56-4.26s0,0,0,0a6.19,6.19,0,0,1-1.56-6c.46-2.43,2.29-3.68,4-4.94,1.38-1,2.68-1.93,3.16-3.35a5.6,5.6,0,0,0,.31-1.57A5,5,0,0,1,17,11.19a7.55,7.55,0,0,1-1.85,4.16,7.46,7.46,0,0,0-1.19,1.94,3.81,3.81,0,0,0,.6,3.85,4.14,4.14,0,0,0,3.91,1.23,4.43,4.43,0,0,0,3.3-3.14,6.55,6.55,0,0,0,.3-2.15,4.85,4.85,0,0,1,1,2.68c0,.19,0,.37,0,.54C23,23,21.92,24,21.92,24A24.06,24.06,0,0,1,16,28.63Zm11-17a17.22,17.22,0,0,1-2,8,7.27,7.27,0,0,0-2.52-5l-.28-.26H19.27l.49,1.35a4.37,4.37,0,0,1,.06,2.9,2.45,2.45,0,0,1-1.8,1.8,2.14,2.14,0,0,1-2-.6A1.81,1.81,0,0,1,15.81,18a6.3,6.3,0,0,1,.89-1.4A9.4,9.4,0,0,0,19,11.36,8.54,8.54,0,0,0,16.38,5.1l-.3-.32H13.5L14,6.13a5,5,0,0,1,.17,3.31c-.27.81-1.27,1.53-2.44,2.36C9.87,13.15,7.6,14.72,6.91,18a5.42,5.42,0,0,0-.09,1.29A17.15,17.15,0,0,1,5,11.66V3.08H27Z"/></g></svg>
